X:16
T:Chärnser-Juiz  Bb  ABC
T:Margrit Spichtig-Hofer (6.9.1962)
T:Dirigenten-Notiz  Edi Gasser
C:Unterwalden (CH)
%%partsbox
%P:ABC
R:Naturjodel
M:3/4
L:1/4
K:Bb
[P:A] "getragen"  F/F/ | B2F | d>cB | f2g | f3 | e2d | c>FF | d2c | B3 | c>FF | 
f2d | B2c | d3 | c>FF | f2d | (B3 | B)zF/F/ | B2F | d>cB | f2g | f3 | e2d | 
c>FF | d2c | B3 | c>FF | f2d | B2c | d3 | c>FF | f2d | (B3 | B)z || 
L:1/4
M:3/4
[P:B] "rassig"  D>FB | D>FB | d>ed | B3 | c>FF | e>dc | B>cd | F3 | 
D/D/ D/F/ B | D/D/ D/F/B | d>ed | B3 | c/F/ F/F/ F/F/ | edc | (B3 | B2)z | 
D>FB | D>FB | d>ed | B3 | c>FF | e>dc | B>cd | F3 | 
D/D/ D/F/ B | D/D/ D/F/B | d>ed | B3 | c/F/ F/F/ F/F/ | edc | (B3 | B2)z ||  
L:1/4
M:3/4
[P:C] "majestätisch"  G>E G/B/ | e>e d/c/ | F>D F/B/ | f>d c/B/ | A>GF | gfe | d>c d/e/ | f3 | 
G>E G/B/ | e>e d/c/ | F>D F/B/ | f>d c/B/ | A>GF | edc | (B3 | B2)z | 
G>E G/B/ | e>e d/c/ | F>D F/B/ | f>d c/B/ | A>GF | gfe | d>c d/e/ | f3 | 
G>E G/B/ | e>e d/c/ | F>D F/B/ | f>d c/B/ | A>GF | edc | (B3 | B2)z | 
W:
%W:Reihenfolge: A - B - C
W:
W:notiert Edi Gasser. Angaben: Margrit Spichtig
W:UJV-Naturjodelsammlung: Code-Nr: 50-08
W:http://www.naturjodler.ch/code 50.htm  (with AUDIO )
%Juni 21, 2018

